X: 110
T:Salamanca Reel
R:reel
M:C|
L:1/8
Q:1/2=112
K:D
|:AD (3FED AD (3FED|Adcd fedc|BE~E2 BE~E2|Beed cdeg|
fB~B2 fB~B2|fgfe dfag|fdec dBAG|[1 FAEA D2dB:|FAEA D2fg|]
|:afdg bgeg|fdcd BAFG|Addc defg|(3aba gb a2fg|
~a3f ~g3e|~f3e dfag|fdec dBAG|[1 FAEA D2fg:|[2 FAEA D2z2|]
